X: 14532
T: Gan Ainm
R: reel
M: 4/4
K: Dmajor
ABAF DFAF|EDEF GABd|ABAF DFAF|GBAF DEFG|
A2 AF DFAF|EDEF GABd|ABAF DFAF|GBAF D3 A||
defd gabg|fgaf edBA|defd gabg|edBA d2 dA|
defd gabg|fgaf edBA|dcdA BAFD|EGFE DEFG||

